source/img/services/services-nav/video-icon-active.svg

<svg width="32" height="32" viewBox="0 0 32 32" fill="none" xmlns="http://www.w3.org/2000/svg">
<path d="M24.9224 22.8696V18.7276L29.1033 16.9524V24.6448L24.9224 22.8696Z" fill="url(#paint0_linear)"/>
<ellipse cx="18.0854" cy="9.85119" rx="5.05371" ry="5.02966" fill="url(#paint1_linear)"/>
<path fill-rule="evenodd" clip-rule="evenodd" d="M13.555 9.79162C13.555 7.24154 15.6326 5.17144 18.199 5.17144C19.5526 5.17144 20.7702 5.74712 21.6193 6.66635C21.7504 6.80835 21.9719 6.81713 22.1139 6.68597C22.2559 6.55482 22.2647 6.33338 22.1335 6.19139C21.1571 5.1343 19.7554 4.47144 18.199 4.47144C15.2943 4.47144 12.9285 6.77943 12.8567 9.65693C12.2221 8.4107 10.923 7.55735 9.42505 7.55735C7.30308 7.55735 5.58003 9.2698 5.58003 11.3857C5.58003 12.7215 6.2667 13.8964 7.30691 14.5813H4.51895C3.77336 14.5813 3.16895 15.1857 3.16895 15.9313V21.9572C3.16895 22.1505 3.32565 22.3072 3.51895 22.3072C3.71224 22.3072 3.86895 22.1505 3.86895 21.9572V15.9313C3.86895 15.5723 4.15996 15.2813 4.51895 15.2813H23.5715C23.9305 15.2813 24.2215 15.5723 24.2215 15.9313V25.5946C24.2215 25.9536 23.9305 26.2446 23.5715 26.2446H4.51894C4.15996 26.2446 3.86895 25.9536 3.86895 25.5946V23.8936C3.86895 23.7003 3.71224 23.5436 3.51895 23.5436C3.32565 23.5436 3.16895 23.7003 3.16895 23.8936V25.5946C3.16895 26.3402 3.77336 26.9446 4.51894 26.9446H23.5715C24.3171 26.9446 24.9215 26.3402 24.9215 25.5946V23.1641L28.4341 24.8979C28.999 25.1767 29.6603 24.7656 29.6603 24.1357V17.3484C29.6603 16.7184 28.999 16.3073 28.4341 16.5862L24.9215 18.3199V15.9313C24.9215 15.1857 24.3171 14.5813 23.5715 14.5813H20.5279C22.312 13.7199 23.5429 11.8996 23.5429 9.79162C23.5429 9.59832 23.3862 9.44162 23.1929 9.44162C22.9996 9.44162 22.8429 9.59832 22.8429 9.79162C22.8429 12.3417 20.7653 14.4118 18.199 14.4118C15.6326 14.4118 13.555 12.3417 13.555 9.79162ZM15.87 14.5813C14.6868 14.01 13.747 13.017 13.248 11.7981C13.123 12.9612 12.4749 13.9679 11.5432 14.5813H15.87ZM9.42505 8.25735C7.68653 8.25735 6.28003 9.65955 6.28003 11.3857C6.28003 13.1119 7.68653 14.5141 9.42505 14.5141C11.1636 14.5141 12.5701 13.1119 12.5701 11.3857C12.5701 9.65955 11.1636 8.25735 9.42505 8.25735ZM28.9603 17.3484C28.9603 17.2372 28.8436 17.1646 28.7439 17.2139L25.1642 18.9807C25.1131 19.006 25.0806 19.0582 25.0806 19.1153V22.3688C25.0806 22.4259 25.1131 22.478 25.1642 22.5033L28.7439 24.2702C28.8436 24.3194 28.9603 24.2468 28.9603 24.1357V17.3484ZM6.2659 24.6581C6.07261 24.6581 5.9159 24.8148 5.9159 25.0081C5.9159 25.2014 6.07261 25.3581 6.2659 25.3581H8.09657C8.28987 25.3581 8.44657 25.2014 8.44657 25.0081C8.44657 24.8148 8.28987 24.6581 8.09657 24.6581H6.2659ZM10.8426 24.6581C10.6493 24.6581 10.4926 24.8148 10.4926 25.0081C10.4926 25.2014 10.6493 25.3581 10.8426 25.3581H12.6732C12.8665 25.3581 13.0232 25.2014 13.0232 25.0081C13.0232 24.8148 12.8665 24.6581 12.6732 24.6581H10.8426ZM15.4192 24.6581C15.2259 24.6581 15.0692 24.8148 15.0692 25.0081C15.0692 25.2014 15.2259 25.3581 15.4192 25.3581H17.2499C17.4432 25.3581 17.5999 25.2014 17.5999 25.0081C17.5999 24.8148 17.4432 24.6581 17.2499 24.6581H15.4192ZM19.9959 24.6581C19.8026 24.6581 19.6459 24.8148 19.6459 25.0081C19.6459 25.2014 19.8026 25.3581 19.9959 25.3581H21.8265C22.0198 25.3581 22.1765 25.2014 22.1765 25.0081C22.1765 24.8148 22.0198 24.6581 21.8265 24.6581H19.9959Z" fill="#0A3D76"/>
<ellipse cx="9.43862" cy="11.3577" rx="3.19448" ry="3.17926" fill="url(#paint2_linear)"/>
<defs>
<linearGradient id="paint0_linear" x1="28.9744" y1="20.7986" x2="25.0448" y2="20.7527" gradientUnits="userSpaceOnUse">
<stop stop-color="#A62E41"/>
<stop offset="1" stop-color="#E13152"/>
</linearGradient>
<linearGradient id="paint1_linear" x1="22.8276" y1="9.85119" x2="13.3309" y2="9.64631" gradientUnits="userSpaceOnUse">
<stop stop-color="#A62E41"/>
<stop offset="1" stop-color="#E13152"/>
</linearGradient>
<linearGradient id="paint2_linear" x1="12.4361" y1="11.3577" x2="6.43322" y2="11.2282" gradientUnits="userSpaceOnUse">
<stop stop-color="#A62E41"/>
<stop offset="1" stop-color="#E13152"/>
</linearGradient>
</defs>
</svg>

<svg width="32" height="32" fill="none" xmlns="http://www.w3.org/2000/svg"><path d="M24.922 22.87v-4.142l4.181-1.776v7.693l-4.18-1.775z" fill="url(#paint0_linear)"/><ellipse cx="18.085" cy="9.851" rx="5.054" ry="5.03" fill="url(#paint1_linear)"/><path fill-rule="evenodd" clip-rule="evenodd" d="M13.555 9.792c0-2.55 2.078-4.62 4.644-4.62a4.64 4.64 0 013.42 1.494.35.35 0 10.515-.475 5.341 5.341 0 00-3.935-1.72c-2.905 0-5.27 2.308-5.342 5.186a3.847 3.847 0 00-3.432-2.1 3.837 3.837 0 00-3.845 3.829 3.82 3.82 0 001.727 3.195H4.519a1.35 1.35 0 00-1.35 1.35v6.026a.35.35 0 10.7 0v-6.026a.65.65 0 01.65-.65h19.053a.65.65 0 01.65.65v9.664a.65.65 0 01-.65.65H4.518a.65.65 0 01-.65-.65v-1.701a.35.35 0 00-.7 0v1.7c0 .746.604 1.35 1.35 1.35H23.57a1.35 1.35 0 001.35-1.35v-2.43l3.513 1.734a.85.85 0 001.226-.762v-6.788a.85.85 0 00-1.226-.762l-3.512 1.734v-2.39a1.35 1.35 0 00-1.35-1.35h-3.044a5.318 5.318 0 003.015-4.79.35.35 0 10-.7 0c0 2.55-2.078 4.62-4.644 4.62-2.566 0-4.644-2.07-4.644-4.62zm2.315 4.79a5.35 5.35 0 01-2.622-2.784 3.824 3.824 0 01-1.705 2.783h4.327zM9.425 8.256a3.137 3.137 0 00-3.145 3.129 3.137 3.137 0 003.145 3.128 3.137 3.137 0 003.145-3.128 3.137 3.137 0 00-3.145-3.129zm19.535 9.091a.15.15 0 00-.216-.134l-3.58 1.767a.15.15 0 00-.083.134v3.254c0 .057.032.109.083.134l3.58 1.767a.15.15 0 00.216-.134v-6.788zm-22.694 7.31a.35.35 0 000 .7h1.83a.35.35 0 100-.7h-1.83zm4.577 0a.35.35 0 100 .7h1.83a.35.35 0 100-.7h-1.83zm4.576 0a.35.35 0 100 .7h1.83a.35.35 0 100-.7h-1.83zm4.577 0a.35.35 0 100 .7h1.83a.35.35 0 100-.7h-1.83z" fill="#0A3D76"/><ellipse cx="9.439" cy="11.358" rx="3.194" ry="3.179" fill="url(#paint2_linear)"/><defs><linearGradient id="paint0_linear" x1="28.974" y1="20.799" x2="25.045" y2="20.753" gradientUnits="userSpaceOnUse"><stop stop-color="#A62E41"/><stop offset="1" stop-color="#E13152"/></linearGradient><linearGradient id="paint1_linear" x1="22.828" y1="9.851" x2="13.331" y2="9.646" gradientUnits="userSpaceOnUse"><stop stop-color="#A62E41"/><stop offset="1" stop-color="#E13152"/></linearGradient><linearGradient id="paint2_linear" x1="12.436" y1="11.358" x2="6.433" y2="11.228" gradientUnits="userSpaceOnUse"><stop stop-color="#A62E41"/><stop offset="1" stop-color="#E13152"/></linearGradient></defs></svg>
